X:1
T:Beatrice
T:Beatrice
T:Lead Sheet
T:Jack Watterson
C:Jack Watterson
%%score 1 { 2 | 3 }
L:1/8
Q:1/4=110
M:4/4
K:G
V:1 treble transpose=-2 nm="B♭ Clarinet" snm="B♭ Cl."
V:2 treble nm="Piano" snm="Pno."
V:3 bass 
V:1
[K:A] z2 z e e2 e2 | =f_b z a- a4 | cA z B- B4 | A2 B6 | z2 z c c2 c2 | fd z e- e4 | Ac z B- B4 | %7
 d2 B2 =GB A2 | G4- G3 B | (3dcd- d4 z e | g8- | g2 df c4 | z B3 B2 G2 | _B4- BE=FE | A=c z A- A4 | %15
 _B z A z a4 |] %16
V:2
"Gmaj7" [GBdf]8 |"Abmaj7" [_Ac_eg]8 |"Gmaj7" [GBdf]8 |"Fmaj7" [=FAce]8 |"Em7" [EGBd]8 | %5
"Fmaj7" [=FAce]8 |"Em7" [GBde]8 |"Cm7" [EGBc]4"F7" [E=FAc]4 |"Bm7" [DFAB]8 |"Cmaj7" [EGBc]8 | %10
"F#m7b5" [EFAc]4"B7b9" [B,^DFAc]4 |"Em7" [GBde]8 |"Am7" [CEGA]8 |"Abmaj7" [_Ac_eg]8 | %14
"Gm7" [_B,D=FG]8 |"Abmaj7" [_Ac_eg]8 |] %16
V:3
 [G,,G,]8 | [_A,,_A,]8 | [G,,G,]8 | [=F,,=F,]8 | [E,,E,]8 | [=F,,=F,]8 | [E,,E,]8 | [C,C]4 =F,4 | %8
 [B,,B,]8 | [C,C]8 | [F,,F,]4 [B,,B,]4 | [E,,E,]8 | [A,,A,]8 | [_A,,_A,]8 | [G,,G,]8 | %15
 [_A,,_A,]8 |] %16

